icons/src/scalable/default/devices/printer-network-symbolic.svg

<?xml version="1.0" encoding="UTF-8" standalone="no"?>
<svg
   xmlns:dc="http://purl.org/dc/elements/1.1/"
   xmlns:cc="http://creativecommons.org/ns#"
   xmlns:rdf="http://www.w3.org/1999/02/22-rdf-syntax-ns#"
   xmlns:svg="http://www.w3.org/2000/svg"
   xmlns="http://www.w3.org/2000/svg"
   xmlns:sodipodi="http://sodipodi.sourceforge.net/DTD/sodipodi-0.dtd"
   xmlns:inkscape="http://www.inkscape.org/namespaces/inkscape"
   viewBox="0 0 16 16"
   version="1.1"
   id="svg6"
   sodipodi:docname="printer-network-symbolic.svg"
   inkscape:version="0.92.1 r15371">
  <metadata
     id="metadata10">
    <rdf:RDF>
      <cc:Work
         rdf:about="">
        <dc:format>image/svg+xml</dc:format>
        <dc:type
           rdf:resource="http://purl.org/dc/dcmitype/StillImage" />
      </cc:Work>
    </rdf:RDF>
  </metadata>
  <sodipodi:namedview
     pagecolor="#ffffff"
     bordercolor="#666666"
     borderopacity="1"
     objecttolerance="10"
     gridtolerance="10"
     guidetolerance="10"
     inkscape:pageopacity="0"
     inkscape:pageshadow="2"
     inkscape:window-width="1600"
     inkscape:window-height="840"
     id="namedview8"
     showgrid="false"
     inkscape:zoom="20.85965"
     inkscape:cx="3.3229445"
     inkscape:cy="8.8231671"
     inkscape:window-x="0"
     inkscape:window-y="32"
     inkscape:window-maximized="1"
     inkscape:current-layer="svg6" />
  <defs
     id="defs3051">
    <style
       type="text/css"
       id="current-color-scheme">
      .ColorScheme-Text {
        color:#4d4d4d;
      }
      </style>
  </defs>
  <g
     id="g4619">
    <path
       sodipodi:nodetypes="sssscsssscssssssccsssscsssccccc"
       inkscape:connector-curvature="0"
       style="fill:#bebebe;fill-opacity:1;stroke:none;stroke-width:0.75"
       d="M 2.75,5 C 2.3362208,5.0015332 2,5.3361685 2,5.75 V 9.5 c 0,0.4145985 0.3361933,0.75 0.75,0.75 h 1.5 v 3 C 4.25,13.664599 4.5861933,14 5,14 h 6 c 0.414623,0 0.75,-0.335401 0.75,-0.75 v -3 h 1.5 C 13.664475,10.25 14,9.9145985 14,9.5 V 5.75 C 14,5.3361685 13.66445,5 13.25,5 c 0,0 0,0 -2.211365,0.011985 C 10.871197,5.0128923 10.625,5.1295592 10.625,5.297 c 0,1.703 0,1.703 0,1.703 H 5.375 V 5.297 C 5.375,5.1452439 5.1888313,4.9909631 5.0370763,4.9915254 Z m 9.75,0.75 c 0.414623,0 0.75,0.3361933 0.75,0.75 2.5e-5,0.4145487 -0.335377,0.75 -0.75,0.75 -0.414598,0 -0.75,-0.3354266 -0.75,-0.75 0,-0.4137821 0.335402,-0.75 0.75,-0.75 z M 5,9.5 h 6 v 3.75 H 5 Z"
       id="path3231" />
    <path
       sodipodi:nodetypes="sccscscsccs"
       inkscape:connector-curvature="0"
       id="path8-15-3"
       d="m 8.0000021,4.5021565 c -0.513861,0 -0.9989455,0.2266037 -1.3308248,0.6216565 C 6.566204,5.2462923 6.5820491,5.4290415 6.7047255,5.5320045 6.7590022,5.5775908 6.8250686,5.6 6.8909488,5.6 c 0.08268,0 0.1647885,-0.035154 0.2219683,-0.1033467 0.2215846,-0.2636969 0.5449604,-0.414963 0.8870851,-0.414963 0.3421247,0 0.6655109,0.1512661 0.8870852,0.414963 C 8.944464,5.5650432 9.0265629,5.6 9.1090557,5.6 9.1749354,5.6 9.2410026,5.577788 9.2952789,5.5320045 9.417955,5.4290311 9.43379,5.2462818 9.3308269,5.123813 8.9989374,4.7287602 8.5138528,4.5021565 8.0000021,4.5021565 Z"
       style="fill:#bebebe;fill-opacity:1;stroke-width:0.01036993" />
    <path
       sodipodi:nodetypes="sccscscsccs"
       inkscape:connector-curvature="0"
       id="path8-4-43-6"
       d="m 7.9998999,3.2273953 c -0.8559857,0 -1.6642595,0.3776624 -2.2179099,1.0362255 C 5.679027,4.3861 5.694862,4.5688493 5.817538,4.6718123 c 0.054277,0.045586 0.120343,0.068006 0.1862232,0.068006 0.082679,0 0.1647885,-0.035165 0.2219683,-0.1033571 0.4429618,-0.5271867 1.0897342,-0.829522 1.7741806,-0.829522 0.6844464,0 1.3312084,0.3023353 1.7743673,0.8295217 0.057377,0.06839 0.1394756,0.103357 0.221958,0.103357 0.065881,0 0.1319466,-0.022223 0.1862336,-0.068006 C 10.305135,4.5688489 10.32097,4.385913 10.218019,4.2636205 9.6641593,3.6050681 8.8558857,3.2273953 7.9998999,3.2273953 Z"
       style="fill:#bebebe;fill-opacity:1;stroke-width:0.01036993" />
    <path
       sodipodi:nodetypes="csccscscscc"
       inkscape:connector-curvature="0"
       id="path8-8-0-7"
       d="M 11.105191,3.4509915 C 10.330153,2.528742 9.198296,2 7.999999,2 6.8017018,2 5.6700314,2.528742 4.8947964,3.4509915 4.7918229,3.5734708 4.8076681,3.75622 4.9303446,3.859183 c 0.054277,0.045586 0.1201563,0.068006 0.1860261,0.068006 0.08268,0 0.1647885,-0.035165 0.222155,-0.1033571 C 6.0030723,3.033146 6.973231,2.579555 7.9999887,2.579555 c 1.0267576,0 1.9969166,0.453591 2.6614523,1.2440906 0.05738,0.068193 0.139475,0.1033571 0.222166,0.1033571 0.06588,0 0.131947,-0.022223 0.186223,-0.068006 0.122479,-0.1027866 0.138335,-0.2857225 0.03536,-0.4080048 z"
       style="fill:#bebebe;fill-opacity:1;stroke-width:0.01036993" />
  </g>
</svg>

<svg version="1.1" viewBox="0 0 16 16" xmlns="http://www.w3.org/2000/svg">
 <g fill="#bebebe">
  <path d="m2.75 5c-0.41378 0.0015332-0.75 0.33617-0.75 0.75v3.75c0 0.4146 0.33619 0.75 0.75 0.75h1.5v3c0 0.4146 0.33619 0.75 0.75 0.75h6c0.41462 0 0.75-0.3354 0.75-0.75v-3h1.5c0.41448 0 0.75-0.3354 0.75-0.75v-3.75c0-0.41383-0.33555-0.75-0.75-0.75l-2.2114 0.011985c-0.16744 9.073e-4 -0.41364 0.11757-0.41364 0.28502v1.703h-5.25v-1.703c0-0.15176-0.18617-0.30604-0.33792-0.30547zm9.75 0.75c0.41462 0 0.75 0.33619 0.75 0.75 2.5e-5 0.41455-0.33538 0.75-0.75 0.75-0.4146 0-0.75-0.33543-0.75-0.75 0-0.41378 0.3354-0.75 0.75-0.75zm-7.5 3.75h6v3.75h-6z"/>
  <g stroke-width=".01037">
   <path d="m8 4.5022c-0.51386 0-0.99895 0.2266-1.3308 0.62166-0.10297 0.12248-0.087128 0.30523 0.035548 0.40819 0.054277 0.045586 0.12034 0.067996 0.18622 0.067996 0.08268 0 0.16479-0.035154 0.22197-0.10335 0.22158-0.2637 0.54496-0.41496 0.88709-0.41496s0.66551 0.15127 0.88709 0.41496c0.057377 0.06839 0.13948 0.10335 0.22197 0.10335 0.06588 0 0.13195-0.022212 0.18622-0.067996 0.12268-0.10297 0.13851-0.28572 0.035548-0.40819-0.33189-0.39505-0.81697-0.62166-1.3308-0.62166z"/>
   <path d="m7.9999 3.2274c-0.85599 0-1.6643 0.37766-2.2179 1.0362-0.10296 0.12248-0.087128 0.30523 0.035548 0.40819 0.054277 0.045586 0.12034 0.068006 0.18622 0.068006 0.082679 0 0.16479-0.035165 0.22197-0.10336 0.44296-0.52719 1.0897-0.82952 1.7742-0.82952s1.3312 0.30234 1.7744 0.82952c0.057377 0.06839 0.13948 0.10336 0.22196 0.10336 0.065881 0 0.13195-0.022223 0.18623-0.068006 0.12267-0.10296 0.1385-0.2859 0.03555-0.40819-0.55386-0.65855-1.3621-1.0362-2.2181-1.0362z"/>
   <path d="m11.105 3.451c-0.77504-0.92225-1.9069-1.451-3.1052-1.451-1.1983 0-2.33 0.52874-3.1052 1.451-0.10297 0.12248-0.087128 0.30523 0.035548 0.40819 0.054277 0.045586 0.12016 0.068006 0.18603 0.068006 0.08268 0 0.16479-0.035165 0.22216-0.10336 0.66455-0.79069 1.6347-1.2443 2.6615-1.2443 1.0268 0 1.9969 0.45359 2.6615 1.2441 0.05738 0.068193 0.13948 0.10336 0.22217 0.10336 0.06588 0 0.13195-0.022223 0.18622-0.068006 0.12248-0.10279 0.13834-0.28572 0.03536-0.408z"/>
  </g>
 </g>
</svg>
